Icons/04PanSlider.svg

<svg viewBox="0 0 16 16" xmlns="http://www.w3.org/2000/svg">
  <path d="m.5 1.5h15v14h-15z" fill="#fff" stroke="#555"/>
  <path d="m7.5 4 1.5 2h-1v2h2v-1l2 1.5-2 1.5v-1h-2v2h1l-1.5 2-1.5-2h1v-2h-2v1l-2-1.5 2-1.5v1h2v-2h-1z" fill="#000004"/>
</svg>

<?xml version="1.0" encoding="UTF-8" standalone="no"?>
<svg
   xmlns:dc="http://purl.org/dc/elements/1.1/"
   xmlns:cc="http://creativecommons.org/ns#"
   xmlns:rdf="http://www.w3.org/1999/02/22-rdf-syntax-ns#"
   xmlns:svg="http://www.w3.org/2000/svg"
   xmlns="http://www.w3.org/2000/svg"
   xmlns:sodipodi="http://sodipodi.sourceforge.net/DTD/sodipodi-0.dtd"
   xmlns:inkscape="http://www.inkscape.org/namespaces/inkscape"
   viewBox="0 0 16 16"
   version="1.1"
   id="svg10"
   sodipodi:docname="04PanSlider.svg"
   inkscape:version="0.92.4 (5da689c313, 2019-01-14)"
   inkscape:export-filename="C:\Users\Kalama\Documents\GitHub\CodeLab-bb\Icons\04PanSlider.32.png"
   inkscape:export-xdpi="192"
   inkscape:export-ydpi="192"><metadata
   id="metadata16">
  <rdf:RDF>
    <cc:Work
       rdf:about="">
      <dc:format>image/svg+xml</dc:format>
      <dc:type
         rdf:resource="http://purl.org/dc/dcmitype/StillImage" />
    </cc:Work>
  </rdf:RDF>
</metadata>
<defs
   id="defs14">
  <inkscape:path-effect
     effect="bspline"
     id="path-effect855"
     is_visible="true"
     weight="33.333333"
     steps="2"
     helper_size="0"
     apply_no_weight="true"
     apply_with_weight="true"
     only_selected="false" />
  <inkscape:path-effect
     effect="bspline"
     id="path-effect851"
     is_visible="true"
     weight="33.333333"
     steps="2"
     helper_size="0"
     apply_no_weight="true"
     apply_with_weight="true"
     only_selected="false" />
  <inkscape:path-effect
     effect="bspline"
     id="path-effect847"
     is_visible="true"
     weight="33.333333"
     steps="2"
     helper_size="0"
     apply_no_weight="true"
     apply_with_weight="true"
     only_selected="false" />
</defs>
<sodipodi:namedview
   pagecolor="#ffffff"
   bordercolor="#666666"
   borderopacity="1"
   objecttolerance="10"
   gridtolerance="10"
   guidetolerance="10"
   inkscape:pageopacity="0"
   inkscape:pageshadow="2"
   inkscape:window-width="1920"
   inkscape:window-height="1018"
   id="namedview12"
   showgrid="false"
   showguides="false"
   inkscape:zoom="32"
   inkscape:cx="16.096038"
   inkscape:cy="7.2813771"
   inkscape:window-x="-8"
   inkscape:window-y="-8"
   inkscape:window-maximized="1"
   inkscape:current-layer="svg10" />









     /&amp;gt;
 <path
   style="fill:#ffffff;fill-opacity:1;stroke:#555555;stroke-width:1px;stroke-linecap:butt;stroke-linejoin:miter;stroke-opacity:1"
   d="m 0.5,1.5 h 15 v 14 h -15 z"
   id="path830"
   inkscape:connector-curvature="0"
   sodipodi:nodetypes="ccccc" />
<path
   style="fill:#000004;fill-opacity:1;stroke:none;stroke-width:1px;stroke-linecap:butt;stroke-linejoin:miter;stroke-opacity:1"
   d="M 7.5,4 9,6 H 8 v 2 h 2 V 7 L 12,8.5 10,10 V 9 H 8 v 2 H 9 L 7.5,13 6,11 H 7 V 9 H 5 v 1 L 3,8.5 5,7 V 8 H 7 V 6 H 6 Z"
   id="path832"
   inkscape:connector-curvature="0"
   sodipodi:nodetypes="ccccccccccccccccccccccccc" />
</svg>
